X:2005
L:1/8
Q:1/8=160
M:6/8
K:D
 A | d3 AFD | E2 F G2 A | BGB Bcd | AGF EFA |"^5" d3 AFD | E2 F G2 A | BGB Bcd | AFD D2 :| A | 
"^9" d3 ceA | dfe dcB | AFA Bcd | AGF EFA |"^13" d3 ceA | dfe dcB | AFA Bcd | AFD D2 :| g | 
"^17" fef afd | dcd fed | gfg faf | gee e2 g |"^21" fef afd | dcd fed | gfg fag | fdd d2 :| g | 
"^25" fdf ece | dcB AFA | AFd AFd | AGF E2 g |"^29" fdf ece | dcB AFA | AFA Bcd | AFD D2 :| G | 
"^33" FAF GBG | FAG FED | FAF GBG | AGF E2 G |"^37" FAF GBG | FAG FED | BGB Bcd | AFD D2 :|

